X:72
T:Harvest Moon (r)
B:NFID.103a
072harv_m
N:I'm not sure if the |_b| really belongs in
measure 15 or not - I'm leaning towards "not"
but I left it in anyway.
S:SD
L:1/8
M:C
R:reel
Q:360
K:G
DGGE FGAF|GDDE =FDCF|DGGE FGA^c|d2cA G2GF|
DGGE FGAF|G2GE =FDCF|DGGE FGA^c|d2cA AGGe||
f2de fcAG|f2de f2ag|f2de fcAe|fgfd c2de|
f2de fcAe|f2de f3g|a_bag fgef|d2cA AGG2:|

%%%

